X:616
T:Millbrae
C:Joe Buchanan's Scottish Tome - Page 181.1
I:181 1
C:Ronnie Cooper
R:Reel
Z:Carl Allison
L:1/8
M:4/4
K:A
(af) | "A"eA ((3AAA) (eA)ce | "D"fedf "A"eaga | "D"fedc "Bm"dcBA | "E7"G2 B2 B2 (af) |
"A"eA ((3AAA) (eA)ce | "D"fedf "A"eaga | "D"fedc "D7"dBed | "A"c2 "D"A2 "A"A2 :|
a2 | "E7"((3gab) (eg) begb | "A"aAce agfe | "D"fedc "Bm"dcBA | "E7"G2 B2 B2 a2 |
"E7"((3gab) (eg) begb | "A"aAce "A/C#"agfe | "D"fedc "E7"dBed | "A"c2 "D"A2 "A"A2 a2 |
"E7"((3gab) (eg) begb | "A"aAce "A/C#"agfe | "D"fedc "Bm"dcBA | "E7"G2 B2 B2 "D"(af) |
"A"eA ((3AAA) (eA)ce | "D"fedf "A/C#"eaga | "D"fedc "E7"dBed | "A"c2 "D"A2 "A"A2 |]

